X:4
M:C|
L:1/8
Q:1/2=70
K:A
E(F/G/) | A2 ED CA,CE | FDBA GEFG | Acec dcBA | GABc BdcB |!
|: (ef/g/) | aefc fdcB | ecBA AGFE | dfdB cecA | GABc B3 E |!

